X: 1
T: Charlie O'Neill's
R: reel
M: 4/4
L: 1/8
K: Emin
A|BEBE cBcA|BEBE cAFA|BEBE cBcB|Addc BGGA|
BEBE cBcA|BEBE cAFA|BEBE cBcB|Addc BGBd||
|(3gag fg (3BBB BA|G2 ag fdef|(3gag fg (3BBB BA|GBdc BGBd|
(3gag fg (3BBB BA|G2 ag fdcA|GBdB cdef|gbaf g3 A||


Tune 655	Setting 13687

